packages/icons/svg/Outline/eraser.svg

<svg fill="none" height="64" viewBox="0 0 64 64" width="64" xmlns="http://www.w3.org/2000/svg"><path d="m34.7549 11.9932c1.9713-1.959 5.1553-1.959 7.1269 0l.0059.0048 12.6426 12.6368c1.9589 1.9699 1.9593 5.1512.0019 7.122l-.0019.003-18.9903 19.1875h12.9004c1.3957 0 2.5284 1.131 2.5284 2.5263-.0003 1.3951-1.1329 2.5264-2.5284 2.5264h-26.5371c-.6795 0-1.3312-.2745-1.8066-.7598l-10.62697-10.8496-.00781-.0078c-1.95173-1.9713-1.94932-5.1482.00781-7.1162l.00586-.0049 25.27441-25.2637zm-.5488 9.6152c-.7811-.781-2.0481-.781-2.8291 0l-17.8916 17.8916c-.7809.7809-.7807 2.0471 0 2.8281l5.2216 5.2217c3.665 3.6649 9.6076 3.6649 13.2725 0l12.6699-12.6689c.7811-.7811.781-2.0481 0-2.8291zm-18.6221-13.6084c1.142 0 2.0683.92488 2.0683 2.0664 0 1.9026 1.5429 3.4453 3.4463 3.4453 1.1419.0001 2.0672.9251 2.0674 2.0664 0 1.1416-.9253 2.0674-2.0674 2.0674-1.9034 0-3.4463 1.5427-3.4463 3.4453-.0001 1.1415-.9263 2.0664-2.0683 2.0664-1.1419-.0001-2.0672-.925-2.0674-2.0664 0-1.9026-1.5438-3.4453-3.4473-3.4453-1.1418-.0003-2.06734-.926-2.06734-2.0674.00021-1.1412.92567-2.0661 2.06734-2.0664 1.9035 0 3.4473-1.5427 3.4473-3.4453.0001-1.14144.9255-2.06628 2.0674-2.0664z" fill="#000"/></svg>

<svg width="64" height="64" viewBox="0 0 64 64" fill="none" xmlns="http://www.w3.org/2000/svg">
<path d="M34.7549 11.9932C36.7262 10.0342 39.9102 10.0342 41.8818 11.9932L41.8877 11.998L54.5303 24.6348C56.4892 26.6047 56.4896 29.786 54.5322 31.7568L54.5303 31.7598L35.54 50.9473H48.4404C49.8361 50.9473 50.9688 52.0783 50.9688 53.4736C50.9685 54.8687 49.8359 56 48.4404 56H21.9033C21.2238 56 20.5721 55.7255 20.0967 55.2402L9.46973 44.3906L9.46192 44.3828C7.51019 42.4115 7.5126 39.2346 9.46973 37.2666L9.47559 37.2617L34.75 11.998L34.7549 11.9932ZM34.2061 21.6084C33.425 20.8274 32.158 20.8274 31.377 21.6084L13.4854 39.5C12.7045 40.2809 12.7047 41.5471 13.4854 42.3281L18.707 47.5498C22.372 51.2147 28.3146 51.2147 31.9795 47.5498L44.6494 34.8809C45.4305 34.0998 45.4304 32.8328 44.6494 32.0518L34.2061 21.6084ZM15.584 8C16.726 8 17.6523 8.92488 17.6523 10.0664C17.6523 11.969 19.1952 13.5117 21.0986 13.5117C22.2405 13.5118 23.1658 14.4368 23.166 15.5781C23.166 16.7197 22.2407 17.6455 21.0986 17.6455C19.1952 17.6455 17.6523 19.1882 17.6523 21.0908C17.6522 22.2323 16.726 23.1572 15.584 23.1572C14.4421 23.1571 13.5168 22.2322 13.5166 21.0908C13.5166 19.1882 11.9728 17.6455 10.0693 17.6455C8.9275 17.6452 8.00196 16.7195 8.00196 15.5781C8.00217 14.4369 8.92763 13.512 10.0693 13.5117C11.9728 13.5117 13.5166 11.969 13.5166 10.0664C13.5167 8.92496 14.4421 8.00012 15.584 8Z" fill="black"/>
</svg>
